wevis-logo.svg

<svg width="205" height="62" viewBox="0 0 205 62" fill="none" xmlns="http://www.w3.org/2000/svg">
<path d="M156.961 13.7819C160.767 13.7819 163.852 10.6967 163.852 6.89095C163.852 3.08518 160.767 0 156.961 0C153.156 0 150.07 3.08518 150.07 6.89095C150.07 10.6967 153.156 13.7819 156.961 13.7819Z" fill="#fff"/>
<path d="M147.216 61.2938V53.4721L149.775 52.8904C150.357 52.8277 150.482 52.6309 150.482 51.9955V26.9733C150.482 26.4632 150.357 26.2663 149.775 26.0783L147.216 25.4429V17.666H166.716V25.4966L164.148 26.141C163.575 26.3289 163.441 26.5258 163.441 27.0359V52.0313C163.441 52.604 163.575 52.7383 164.085 52.9262L166.716 53.6332V61.3296L147.216 61.2938Z" fill="#fff"/>
<path d="M111.714 61.2935L100.84 26.8745C100.802 26.7257 100.721 26.5915 100.606 26.4895C100.491 26.3874 100.348 26.322 100.196 26.3018L96.8043 25.729V17.791H118.748V25.729L116.188 26.4987C115.941 26.5312 115.714 26.6527 115.549 26.8404C115.384 27.0281 115.294 27.2692 115.294 27.5189C115.337 28.2357 115.466 28.9447 115.678 29.6309L120.35 48.0575H120.663L125.317 29.6578C125.522 28.9699 125.651 28.2617 125.702 27.5457C125.687 27.2905 125.583 27.0485 125.408 26.8621C125.233 26.6756 124.998 26.5565 124.744 26.5255L122.247 25.7559V17.8179H143.618V25.6932L140.101 26.3913C139.942 26.4233 139.796 26.5015 139.682 26.6162C139.567 26.7308 139.489 26.8767 139.457 27.0356L128.905 61.3203L111.714 61.2935Z" fill="#fff"/>
<path d="M171.074 58.1512C171.117 54.1824 171.398 50.2197 171.916 46.2845H182.413L183.442 51.2872C184.787 51.7388 186.194 51.9774 187.613 51.9942C190.047 51.9942 191.649 50.9023 191.649 49.1662C191.649 46.9915 188.892 46.1592 185.617 45.1927C179.075 43.2059 171.253 40.6375 171.253 30.498C171.253 20.3584 177.921 17.0293 187.998 17.0293C194.414 17.0293 198.585 18.6939 203.068 20.8148C203.133 24.5682 202.899 28.3208 202.37 32.0372H191.864L191.354 27.6163C190.337 27.1884 189.244 26.9693 188.141 26.972C185.769 26.972 184.23 27.5447 184.23 29.4062C184.23 31.5898 187.183 32.8785 190.387 33.9613C196.652 36.0107 204.634 38.8387 204.634 48.146C204.634 57.4532 198.728 61.9994 187.568 61.9994C181.852 61.9638 176.216 60.6489 171.074 58.1512Z" fill="#fff"/>
<path d="M25.6576 17.7905V25.7106L28.7988 26.6056C30.1054 26.9546 30.0875 27.6258 29.4073 29.6573L23.3218 48.1017H22.8833L18.1849 29.6573C17.6569 27.6884 17.6659 26.8651 18.7935 26.6056L22.1316 25.7106V17.7905H0V25.7106L3.57971 26.4087C3.92873 26.4982 4.00928 26.6682 4.09877 27.0172L14.8379 61.293H30.2754L35.645 43.0812L41.0146 61.2661H56.4968L67.236 26.9904C67.277 26.8406 67.3564 26.704 67.4662 26.5942C67.5761 26.4844 67.7126 26.405 67.8624 26.3639L71.3258 25.6838V17.7637H49.2121V25.6838L52.5502 26.5787C53.6867 26.8382 53.6867 27.6616 53.1587 29.6304L48.4604 48.0749H48.0308L41.9095 29.6573C41.2383 27.6258 41.2114 26.9725 42.518 26.6056L45.6592 25.7106V17.7905H25.6576Z" fill="#fff"/>
<path d="M81.4474 41.6413H87.2376V39.9946C87.2376 38.2048 86.2173 37.2562 84.3738 37.2562C82.5302 37.2562 81.4474 38.2137 81.4474 39.9946V41.6413ZM69.1063 49.1497V40.7553C69.1063 33.0589 75.0844 27.9668 84.1232 27.9668C93.162 27.9668 99.1312 33.0589 99.1312 40.7553V47.9147H81.4474V49.633C81.4474 51.4766 83.6131 52.6847 85.922 52.6847C88.2309 52.6847 90.5041 51.6645 90.8799 50.0805H99.0864V56.345C95.7841 60.229 90.7546 61.9472 85.5372 61.9472C75.7288 61.9383 69.1063 56.8461 69.1063 49.1497Z" fill="#fff"/>
</svg>

<svg xmlns="http://www.w3.org/2000/svg" fill="none" viewBox="0 0 205 62"><path fill="#fff" d="M156.961 13.782a6.89 6.89 0 100-13.782 6.89 6.89 0 000 13.782zM147.216 61.294v-7.822l2.559-.582c.582-.062.707-.26.707-.895V26.974c0-.51-.125-.707-.707-.895l-2.559-.635v-7.777h19.5v7.83l-2.568.645c-.573.188-.707.385-.707.895V52.03c0 .573.134.707.644.895l2.631.707v7.697l-19.5-.036zM111.714 61.294l-10.874-34.42a.768.768 0 00-.644-.572l-3.392-.573v-7.938h21.944v7.938l-2.56.77a1.03 1.03 0 00-.894 1.02c.043.717.172 1.426.384 2.112l4.672 18.426h.313l4.654-18.4a9.844 9.844 0 00.385-2.111 1.092 1.092 0 00-.958-1.02l-2.497-.77v-7.938h21.371v7.875l-3.517.698a.818.818 0 00-.644.645L128.905 61.32l-17.191-.026zM171.074 58.151a99.16 99.16 0 01.842-11.867h10.497l1.029 5.003c1.345.452 2.752.69 4.171.707 2.434 0 4.036-1.092 4.036-2.828 0-2.174-2.757-3.007-6.032-3.973-6.542-1.987-14.364-4.555-14.364-14.695s6.668-13.469 16.745-13.469c6.416 0 10.587 1.665 15.07 3.786a70.922 70.922 0 01-.698 11.222h-10.506l-.51-4.42a8.234 8.234 0 00-3.213-.645c-2.372 0-3.911.573-3.911 2.434 0 2.184 2.953 3.473 6.157 4.555 6.265 2.05 14.247 4.878 14.247 14.185s-5.906 13.853-17.066 13.853a38.297 38.297 0 01-16.494-3.848zM25.658 17.79v7.92l3.14.896c1.307.349 1.29 1.02.61 3.051l-6.086 18.445h-.439l-4.698-18.445c-.528-1.969-.52-2.792.609-3.051l3.338-.895v-7.92H0v7.92l3.58.698c.349.09.43.26.519.608l10.739 34.276h15.437l5.37-18.212 5.37 18.185h15.482L67.236 26.99a.894.894 0 01.626-.626l3.464-.68v-7.92H49.212v7.92l3.338.895c1.137.26 1.137 1.083.609 3.051L48.46 48.075h-.43l-6.12-18.418c-.672-2.031-.699-2.684.608-3.051l3.141-.895v-7.92H25.658zM81.447 41.641h5.79v-1.646c0-1.79-1.02-2.739-2.863-2.739-1.844 0-2.927.958-2.927 2.739v1.646zm-12.34 7.509v-8.395c0-7.696 5.977-12.788 15.016-12.788s15.008 5.092 15.008 12.788v7.16H81.447v1.718c0 1.844 2.166 3.052 4.475 3.052 2.309 0 4.582-1.02 4.958-2.605h8.206v6.265c-3.302 3.884-8.331 5.602-13.549 5.602-9.808-.009-16.43-5.1-16.43-12.797z"/></svg>
